X: 49
M:4/4
L:1/8
K:D
"Moderato"(3ABc|d2 de dcAF|G2 GF GBAG|F2 GFD2 D2|D4-D2 DE|
d2 de dcAF|G2 GF GBAG|F2 GF D2 D2|D4-D2||

